X: 1
T:Love for sale
M:4/4
L:1/4
C:Cole Porter
S: Karl Dallas
K:Bbm
Q:"(mediun/up)"
P:A
B4-|B3=3DG|F4-|F4|zB/B/ BB|BB2=3DG|F4-|F4|
zB/B/ BB|Bcc2|zA/A/ AA|AGG2|F4-|F3D|B,4-|B,4||
P:A
B4-|B3=3DG|F4-|F4|zB/B/ BB|ecB=3DG|F4-|F4|
zB/B/ BB|Bcc2|zA/A/ AA|AGG2|F4-|F3D|B,4-|B,4||
P:B
zB,/C/ DE|FEE2|zC/D/ EF|A4|
zB,/C/ DE|FEE2|zC/D/ EF|B4|
zB,/C/ =3DDF|GFF2|z=3DD (3EFG|cBB2|
d2c2|d2c2|z=3DB/B/ BB|=3DB2_B2||
P:A
B4-|B3=3DG|F4-|F4|zB/B/ BB|BB2=3DG|F4-|F4|
zB/B/ BB|Bcc2|zd/d/ dd|dee2|f4-|f3d|B4-|B4|]
        